X:1
T:The Birks Of Aberfeldy
M:4/4
L:1/8
K:D
 D3/2 E/2 FA d3/2 d/2d-B| d3/2 e/2d-Bc/2-d/2 ed/2-e/2 f| D3/2 E/2 FA d3/2 e/2 f f/2e/2|\
 d3/2 B/2 AF E2 BD| D3/2 E/2 Fd AD AD| AD FAB/2-A/2G/2-F/2 E3/2 F/2|\
 D3/2 E/2 FA d3/2 e/2 f f/2e/2| d3/2 B/2 AF E2 B2|
